X:18
%%etbk:tnset id:7,pos:1,rep:3
%%etbk:site1 http://www.thesession.org/tunes/display/2660
T: Cloon, The
T: Humours Of Toomagh, The
Z: Piano Box Version by Martin Fleischmann (www.boxplayer.ch)
M: 4/4
L: 1/8
R: Reel
K: Dmaj
!3!d|:!5!f!4!e!3!d!2!B !1!A3!2!F|!2!F!1!E!1!D!2!F !3!A3!5!d|!3!f!2!e!1!d!2!B !1!A3!2!F|!2!F!1!E!1!D!2!F !2!F!1!EE!3!d|
!5!fedB A3F|FEDF !3!A3!4!B|!2!dd!3!f!2!d !5!a2a!3!f|1 !2!e!1!d!2!B!1!A !2!F!1!EE!3!d:|2 edBA FEE2||
|:!2!d2!3!f!2!d !5!a!2!d!3!f!2!d|!4!a!3!a!4!a!5!b !4!a!3!f!2!e!3!f|!2!d2fd !1!Adf2|!1!A!2!B!3!d!4!e !3!f!2!eef|
!2!d2fd Adfd|!5!a2!4!ab aafa |bafd egfe|dBAF FEE2:|

